src/lib/packages/icons/src/assets/line/folder-import.svg

<svg width="24" height="24" viewBox="0 0 24 24" fill="none" xmlns="http://www.w3.org/2000/svg">
<path d="M18 6.25H13.311L10.531 3.47C10.39 3.329 10.2 3.25 10.001 3.25H6.00098C3.58298 3.25 2.25098 4.582 2.25098 7V17C2.25098 19.418 3.58298 20.75 6.00098 20.75H18.001C20.419 20.75 21.751 19.418 21.751 17V10C21.75 7.582 20.418 6.25 18 6.25ZM20.25 17C20.25 18.577 19.577 19.25 18 19.25H6C4.423 19.25 3.75 18.577 3.75 17V7C3.75 5.423 4.423 4.75 6 4.75H9.68896L12.469 7.53C12.61 7.671 12.8 7.75 12.999 7.75H17.999C19.576 7.75 20.249 8.423 20.249 10V17H20.25ZM12.75 14C12.75 14.414 12.414 14.75 12 14.75H8.81104L9.53101 15.47C9.82401 15.763 9.82401 16.238 9.53101 16.531C9.38501 16.677 9.19298 16.751 9.00098 16.751C8.80898 16.751 8.61695 16.678 8.47095 16.531L6.47095 14.531C6.40195 14.462 6.34708 14.379 6.30908 14.287C6.23308 14.104 6.23308 13.897 6.30908 13.714C6.34708 13.622 6.40195 13.539 6.47095 13.47L8.47095 11.47C8.76395 11.177 9.23898 11.177 9.53198 11.47C9.82498 11.763 9.82498 12.238 9.53198 12.531L8.81201 13.251H12C12.414 13.25 12.75 13.586 12.75 14Z" fill="currentColor"/>
</svg>

<svg xmlns="http://www.w3.org/2000/svg" width="24" height="24" fill="none"><path fill="currentColor" d="M18 6.25h-4.689l-2.78-2.78a.749.749 0 0 0-.53-.22h-4c-2.418 0-3.75 1.332-3.75 3.75v10c0 2.418 1.332 3.75 3.75 3.75h12c2.418 0 3.75-1.332 3.75-3.75v-7C21.75 7.582 20.418 6.25 18 6.25ZM20.25 17c0 1.577-.673 2.25-2.25 2.25H6c-1.577 0-2.25-.673-2.25-2.25V7c0-1.577.673-2.25 2.25-2.25h3.689l2.78 2.78c.141.141.331.22.53.22h5c1.577 0 2.25.673 2.25 2.25v7h.001Zm-7.5-3a.75.75 0 0 1-.75.75H8.811l.72.72a.75.75 0 0 1-1.06 1.061l-2-2a.749.749 0 0 1-.162-.817.749.749 0 0 1 .162-.244l2-2a.75.75 0 0 1 1.061 1.061l-.72.72H12a.749.749 0 0 1 .75.749Z"/></svg>
